X: 100216
M: C|
L: 1/8
K: Dm
uc!segno!|\
[1 A>dd>f (c>f)(A>f) | B>G G/G/G (F>D) D :|\
[2 {fg}(.a>.g) (f>d) (c>B)(A>d) | (B>G) G/G/G (F>D) D2 |]
|:\
[1  D<G(G>B) (c>B)A<d | (B>G) G/G/G (F>D)D2 :|\
[2 (A>d) d/d/d (c>A) A/A/A | (B>G) G/G/G "^Segue Reel."(F>D) D "^D.C."|]


